src/pos-icons/camera-metering-partial.svg

<svg height="24" viewBox="0 0 24 24" width="24" xmlns="http://www.w3.org/2000/svg"><path d="m4 4h16a2 2 0 0 1 2 2v12a2 2 0 0 1 -2 2h-16a2 2 0 0 1 -2-2v-12a2 2 0 0 1 2-2m0 2v12h16v-12zm8 1.5c2.14 0 3.93 1.5 4.39 3.5h-1.56c-.41-1.17-1.52-2-2.83-2s-2.42.83-2.83 2h-1.56c.46-2 2.25-3.5 4.39-3.5m0 9c-2.14 0-3.93-1.5-4.39-3.5h1.56c.41 1.17 1.52 2 2.83 2s2.42-.83 2.83-2h1.56c-.46 2-2.25 3.5-4.39 3.5z"/></svg>

<?xml version="1.0" encoding="UTF-8"?><!DOCTYPE svg PUBLIC "-//W3C//DTD SVG 1.1//EN" "http://www.w3.org/Graphics/SVG/1.1/DTD/svg11.dtd"><svg xmlns="http://www.w3.org/2000/svg" xmlns:xlink="http://www.w3.org/1999/xlink" version="1.1" id="mdi-camera-metering-partial" width="24" height="24" viewBox="0 0 24 24"><path d="M4,4H20A2,2 0 0,1 22,6V18A2,2 0 0,1 20,20H4A2,2 0 0,1 2,18V6A2,2 0 0,1 4,4M4,6V18H20V6H4M12,7.5C14.14,7.5 15.93,9 16.39,11H14.83C14.42,9.83 13.31,9 12,9C10.69,9 9.58,9.83 9.17,11H7.61C8.07,9 9.86,7.5 12,7.5M12,16.5C9.86,16.5 8.07,15 7.61,13H9.17C9.58,14.17 10.69,15 12,15C13.31,15 14.42,14.17 14.83,13H16.39C15.93,15 14.14,16.5 12,16.5Z" /></svg>
